X:24404
T:Loudon's Bonnie Woods and Braes
H: 
C: R. A. Smith (1805) or Duncan MacIntrye (<1807)
B: The Book of Scottish Songs (1843).  Scots Guard I(173)
S:Matthew Betham MS, Towcett Cumbria, 1815
O:England;Cumbria;Towcett
O:Arranged by Kevin Fraser
O:Transcribed by Kevin Fraser
Z:Kevin Fraser
Q:1/4=132
K:HP
M:4/4
L:1/8
R:Strathspey
U: R = ///
U: r = //
U: V = !accent!
V:M gstem=up stem=down name="Melody" sname="Melody" 
V:H gstem=up stem=down name="Harmony" sname="Harmony"
V:C gstem=up stem=down name="C-Harmony" sname="C-Harmony"
V:S gstem=up stem=down dyn=up stafflines=1 clef=perc middle=G name="Snare" sname="Snare" sname="Snare"
V:B gstem=up stem=down clef=none dyn=up name="Bass" sname="Bass"
V:T gstem=up stem=down clef=none dyn=up name="Tenor" sname="Tenor"
V:BB gstem=up stem=down name="Brass Bass" sname="ABCD-C" transpose=-1  octave=-1 clef=bass
V:BC gstem=up stem=down name="Brass Chord" sname="ABCD-D" transpose=-1
V:BD gstem=up stem=down name="Brass Chord 2" sname="ABCD-B" transpose=-1
V:P gstem=up stem=down name="Piano" octave=-1
I:MIDI=program 110
%%MIDI gracedivider 4
%%score {M}
%%MIDI program 109 #bagpipes
%%MIDI vol 100
|: A/	| {Gdc}d2 {gdG}d2 {g}f<a {g}a2 | {f}g>e {gfg}f>d {gef}e>d {gcd}c<{e}A |  {Gdc}d2 {gdG}d2 {g}f<a {g}a2 | {g}B/c/d {gcd}c<{e}A {Gdc}d2 {gdG}d. :| $
|: A/ 	| {Gdc}d>e {gfg}f>d {gef}e>d {gcd}c<{e}A | {g}B>c {Gdc}d>c {g}B>{d}c {e}A>B | {Gdc}d>e {gfg}f>d {gef}e>d {gcd}c<{e}A |  {g}B/c/d {gcd}c<{e}A {Gdc}d2 {gdG}d. :| $
W:  _    | Loudon's bonnie woods and braes |I maun leave them a', lassie | Wha, can thole when Britain's faes | Would gi'e to Britons law, lassie? |
W:  _    |Wha would shun the field o' danger | Wha to fame would live a stranger? | Now when Freedom bids avenge her | Wha would shun her ca', lassie? |
W:  _    | Loudon's bonnie woods and braes, |Ha'e seen our happy bridal days, | And gentle hope shall soothe thy waes, |When I am far awa', lassie.
W:
W: Poem written by Robert Tannhill, and set to music by R. A. Smith. 
W:Loudon castle, in Ayrshire, with its luxuriant woods, is the locality here celebrated.
W: The song was composed around 1805 when the earl of Moira (afterwards Marquis of Hastings) was commander-in-chief of the forces in Scotland.
W: His lordship was married in 1804 to Flora Muir Campbell, in her own right Countess of Loudon.
W:The song is supposed to depict the parting of the soldier and his young bride. 
T:Loudon's Bonnie Woods & Braes (William Ross)
M:C
L:1/8
R:Pipe Strathspey
B:William Ross - Ross's Collection of Pipe Music (1869, No. 171, p. 118)
Z:AK/Fiddler's Companion
K:Amix
A<A A2 B/c/d e2|d>Bc>A c<eB>G|A<A A2 B/c/d e2|
c>ag/f/e g2 a2:|c<ea>e g>ef>d|c<eg>A c<eB>G|
c>ea>e g>ef>d|c>ag/f/e g2 a2|c<ea>e g>ef>d|
c<eg>A c<eB>G|A<A A2 B/c/d e2|c>ag/f/e g2 a2||
W:William Ross - Ross's Collection of Pipe Music (1869, No. 171, p. 118)
W:https://tunearch.org/wiki/Loudon%27s_Bonnie_Woods
F:http://www.village-music-project.org.uk/abc/betham.abc	
T:Loudon's Bonnie Woods & Braes (Hugh Taylor)
Z:VMP - Hugh Taylor, 2012
K:G
D2|:!segno! G<GG<G B<d-~d2|c>AB>G {F/G/} AGFD|G>GG>G B<d-~d2|e>g f/g/a/f/ g/a/b/a/ g<b:|
fgb<g  a>gfd|ee{f}g<e d>cBG|f<g~b<g agf(d|e)>"^NB4"g f/a/a/f/ g2 ga/b/|
c'<ab>g ageg|e/d/c/B/ g>B c/B/A/G/ A>B|\
G<GG<G (B<"^NB5"d) d2|f>g .f/.g/.a/.f/ a/g/f/e/ d/c/B/A/!D.S.!|]


